img/decore/reviews__title_decore.svg

<svg width="105" height="105" viewBox="0 0 105 105" fill="none" xmlns="http://www.w3.org/2000/svg">
<g id="Sparkle">
<g id="Group">
<path id="Vector" d="M89.9246 62.3434C85.8777 61.3043 79.06 60.1923 76.5443 58.4788C75.5053 57.7679 75.6329 56.984 75.8152 56.4371C75.9975 55.9267 77.0365 55.3981 77.6745 55.4345C79.1147 55.4892 80.5548 55.7991 81.9402 56.1819C85.0209 57.0205 88.0834 57.8955 91.1095 58.8981C92.7136 59.4267 93.224 60.6481 92.2943 61.4319C91.7475 61.8876 91.2371 62.3434 89.9246 62.3434Z" fill="#CD4631"/>
<path id="Vector_2" d="M26.1224 90.5074C26.3047 89.5413 26.6693 89.0309 27.1979 88.2835C29.2578 85.4033 31.4088 82.5777 33.5234 79.7522C33.651 79.5882 33.7969 79.4059 33.9609 79.2783C34.6901 78.6585 35.5104 77.9293 36.4583 78.6038C37.4062 79.2965 37.0781 80.3173 36.5677 81.1376C34.4531 84.583 32.3021 88.01 30.1146 91.4189C29.7865 91.9475 29.2214 92.4033 28.6562 92.6767C27.2526 93.3512 26.013 92.4215 26.1224 90.5074Z" fill="#CD4631"/>
<path id="Vector_3" d="M71.6771 89.87C71.6771 90.6903 71.0391 91.2737 70.5652 91.3648C69.9271 91.4924 69.3803 91.383 68.4688 90.7633C68.1589 90.5627 67.9766 90.0705 67.7943 89.6877C66.4636 86.8075 65.1146 83.9455 63.8204 81.0471C63.4922 80.3362 63.1641 79.5158 63.2188 78.7684C63.2735 78.094 63.6928 77.1278 64.2396 76.8908C64.7683 76.6539 65.4792 76.5809 66.3178 77.4013C66.6277 77.6929 66.9193 78.1851 67.1198 78.6408C68.4323 81.6851 69.7448 84.7294 71.0209 87.7919C71.2579 88.3752 71.4037 89.0132 71.6771 89.87Z" fill="#CD4631"/>
<path id="Vector_4" d="M13.8177 64.7501C12.9792 64.5131 12.4323 64.112 12.3047 63.5652C12.1406 62.8725 12.487 61.9428 12.888 61.2865C13.1979 60.7943 13.9089 60.4844 14.5104 60.2839C17.5183 59.2813 20.5443 58.2969 23.5886 57.3672C24.099 57.2032 24.7552 57.1485 25.2474 57.3126C26.0495 57.586 26.3959 58.224 25.7396 58.9896C25.375 59.4271 24.9558 59.8829 24.4636 60.1199C21.6198 61.5417 18.7578 62.9089 15.8776 64.2579C15.349 64.4949 14.638 65.0053 13.8177 64.7501Z" fill="#CD4631"/>
<path id="Vector_5" d="M75.5781 33.4689C75.1771 33.3048 74.8308 32.6485 74.8125 32.211C74.7943 31.6095 74.9766 30.8803 75.3412 30.3881C77.0365 28.0548 78.8229 25.7579 80.5912 23.4793C80.8464 23.1329 81.1927 22.8595 81.5391 22.586C82.3229 21.9845 83.3438 21.4558 84.0365 22.3673C84.4375 22.8959 84.5651 24.2449 84.1823 24.7006C81.849 27.5444 79.3334 30.2605 76.836 32.9767C76.6354 33.2136 76.2344 33.5965 75.5781 33.4689Z" fill="#CD4631"/>
<path id="Vector_6" d="M17.1354 29.513C18.1562 29.8229 18.9401 30.0052 19.6875 30.2786C21.8568 31.0625 24.026 31.8646 26.1771 32.6849C26.7786 32.9219 27.4167 33.1588 27.9088 33.5416C28.2552 33.8151 28.638 34.5078 28.5104 34.763C28.2917 35.1823 27.9635 35.7109 27.2161 35.6562C26.9062 35.638 26.5052 35.6198 26.1588 35.5286C23.7161 34.8724 21.2734 34.2526 18.8489 33.5234C18.0286 33.2864 17.1719 32.9401 16.5156 32.4114C16.0417 32.0286 15.6042 31.1719 15.7318 30.6614C15.8411 30.1875 16.2422 29.513 17.1354 29.513Z" fill="#CD4631"/>
<path id="Vector_7" d="M50.4949 21.966C50.4767 22.1847 50.4584 22.4035 50.3855 22.604C50.0756 23.4972 49.8751 24.4998 48.6173 24.4087C47.2866 24.3175 47.2319 23.2238 47.2501 22.3306C47.3048 20.1795 47.5053 18.0285 47.6694 15.8592C47.7423 15.0754 47.8334 14.2733 48.0522 13.5259C48.2709 12.7603 48.5808 11.9764 49.6381 12.104C50.6225 12.2316 50.9506 12.8879 50.9689 13.7629C50.9689 14.7108 50.6772 20.1795 50.4949 21.966Z" fill="#CD4631"/>
</g>
</g>
</svg>

<svg width="105" height="105" fill="none" xmlns="http://www.w3.org/2000/svg"><path d="M89.925 62.343c-4.047-1.039-10.865-2.15-13.38-3.864-1.04-.711-.912-1.495-.73-2.042.183-.51 1.222-1.039 1.86-1.002 1.44.054 2.88.364 4.265.747 3.08.838 6.143 1.713 9.17 2.716 1.604.529 2.114 1.75 1.184 2.534-.546.456-1.057.911-2.37.911zM26.122 90.507c.183-.966.547-1.476 1.076-2.224 2.06-2.88 4.21-5.705 6.325-8.53a2.71 2.71 0 01.438-.475c.73-.62 1.55-1.349 2.497-.674.948.692.62 1.713.11 2.534a605.269 605.269 0 01-6.453 10.28c-.328.53-.894.985-1.459 1.259-1.403.674-2.643-.256-2.534-2.17zm45.555-.637c0 .82-.638 1.404-1.112 1.495-.638.127-1.185.018-2.096-.602-.31-.2-.492-.693-.675-1.075-1.33-2.88-2.68-5.743-3.974-8.64-.328-.712-.656-1.532-.601-2.28.054-.674.474-1.64 1.02-1.877.53-.237 1.24-.31 2.079.51.31.292.601.784.802 1.24 1.312 3.044 2.625 6.088 3.9 9.15.238.584.384 1.222.657 2.079zM13.818 64.75c-.839-.237-1.386-.638-1.513-1.185-.164-.692.182-1.622.583-2.279.31-.492 1.02-.802 1.622-1.002a376.312 376.312 0 019.079-2.917c.51-.164 1.166-.218 1.658-.054.802.273 1.149.911.493 1.677-.365.437-.784.893-1.276 1.13a372.087 372.087 0 01-8.586 4.138c-.529.237-1.24.747-2.06.492zm61.76-31.281c-.4-.164-.747-.82-.766-1.258-.018-.601.165-1.33.53-1.823 1.695-2.333 3.48-4.63 5.25-6.909.254-.346.6-.62.947-.893.784-.601 1.805-1.13 2.498-.219.4.529.528 1.878.145 2.334-2.333 2.843-4.849 5.56-7.346 8.276-.2.237-.602.62-1.258.492zm-58.443-3.956c1.021.31 1.805.492 2.552.766a394.71 394.71 0 016.49 2.406c.602.237 1.24.474 1.732.857.346.273.729.966.601 1.221-.218.42-.547.948-1.294.893-.31-.018-.71-.036-1.057-.127-2.443-.657-4.886-1.276-7.31-2.006-.82-.237-1.677-.583-2.333-1.112-.474-.382-.912-1.24-.784-1.75.11-.474.51-1.148 1.403-1.148zm33.36-7.547c-.018.219-.037.438-.11.638-.31.893-.51 1.896-1.768 1.805-1.33-.091-1.385-1.185-1.367-2.078.055-2.151.255-4.302.42-6.472.072-.784.163-1.586.382-2.333.219-.766.529-1.55 1.586-1.422.985.128 1.313.784 1.33 1.659 0 .948-.29 6.417-.473 8.203z" fill="#CD4631"/></svg>
